svgs/swiss_topo.svg

<svg viewBox="0 0 192 192" xml:space="preserve" style="fill-rule:evenodd;clip-rule:evenodd;stroke-linejoin:round;stroke-miterlimit:2" xmlns="http://www.w3.org/2000/svg"><path d="M1197.31 810.234c5.61-3.021 10.8-11.005 12.42-25.885a6.01 6.01 0 0 0-5.33-6.611 6.006 6.006 0 0 0-6.61 5.32c-.56 5.227-1.54 9.329-2.93 12.377-.93 2.042-1.92 3.523-3.24 4.234a6 6 0 1 0 5.69 10.565Zm-36.66-30.184c.02 5.33 1.26 10.621 4.71 14.622 2.59 3.007 5.61 6.67 8.93 9.747a6.002 6.002 0 0 0 8.16-8.802c-2.99-2.763-5.68-6.077-8-8.777-1.58-1.837-1.79-4.373-1.8-6.82 0-3.312-2.7-5.994-6.01-5.985-3.31.008-5.99 2.704-5.99 6.015Zm-26.17-2.455a6 6 0 0 0-2.98 11.591c1.37.463 2.71.686 3.99.686 4.34 0 7.65-2.387 9.7-6.628 2.62-5.386 2.68-14.921 2.47-18.851a5.996 5.996 0 0 0-6.3-5.68 6.001 6.001 0 0 0-5.68 6.303c.11 2.083.23 6.301-.43 9.996-.14.801-.5 1.864-.77 2.583Zm-24.39-9.359s2.16 3.294 5.3 7.219c2.06 2.587 5.84 3.009 8.43.941a5.998 5.998 0 0 0 .94-8.433c-2.75-3.436-4.64-6.317-4.64-6.317a6 6 0 1 0-10.03 6.59Zm100.32-2.321c.27-8.422 1.08-14.985 4.34-20.061a6 6 0 0 0-1.81-8.291c-2.78-1.79-6.5-.981-8.29 1.805-4.27 6.652-5.88 15.128-6.24 26.164a6.01 6.01 0 0 0 5.81 6.188 6.006 6.006 0 0 0 6.19-5.805Zm-53.43-11.289c3.24 1.816 4.31 5.281 4.73 8.311a6.01 6.01 0 0 0 6.77 5.122c3.28-.453 5.57-3.485 5.12-6.765-.91-6.561-4.03-13.61-11.23-17.398-4.44-2.339-9.35-1.472-13.88 1.755a6.01 6.01 0 0 0-1.4 8.369 6.003 6.003 0 0 0 8.37 1.402c.45-.319 1.24-.674 1.52-.796Zm13.96-41.37 11.75 24.369c1 2.075 3.1 3.394 5.4 3.394 2.3 0 4.41-1.319 5.41-3.394l11.75-24.369a19.637 19.637 0 0 0 2.56-9.732c0-10.885-8.83-19.723-19.72-19.723-10.89 0-19.72 8.838-19.72 19.723 0 3.542.94 6.868 2.57 9.743v-.011Zm55.08 24.039c1.73-.723 3.62-1.39 5.7-2.01a6.003 6.003 0 0 0 4.03-7.467 6.007 6.007 0 0 0-7.47-4.03c-2.51.751-4.8 1.563-6.89 2.438a6 6 0 0 0-3.22 7.853 6.003 6.003 0 0 0 7.85 3.216Zm-94.97-17.702-7.76 7.761a6.005 6.005 0 0 0 0 8.485c2.34 2.342 6.14 2.342 8.49 0l7.76-7.761 7.76 7.761a5.996 5.996 0 0 0 8.48 0 5.987 5.987 0 0 0 0-8.485l-7.76-7.761 7.76-7.762a5.987 5.987 0 0 0 0-8.485 5.998 5.998 0 0 0-8.48 0l-7.76 7.761-7.76-7.761c-2.35-2.341-6.15-2.341-8.49 0a6.005 6.005 0 0 0 0 8.485l7.76 7.762Zm50.6-11.748a6.783 6.783 0 0 0-.23-.429 7.669 7.669 0 0 1-1.05-3.892c0-4.262 3.46-7.723 7.72-7.723s7.72 3.461 7.72 7.723c0 1.419-.38 2.749-1.05 3.892-.08.14-.16.283-.23.429l-6.44 13.36-6.44-13.36ZM1101.14 652c-7 0-14.01 1.18-21.02 3.493a5.998 5.998 0 0 0-4.12 5.698c0 17.158.58 34.982 22.73 44.735 1.54.678 3.29.678 4.83 0 22.15-9.753 22.73-27.577 22.73-44.735 0-2.59-1.66-4.887-4.12-5.698-7.01-2.313-14.02-3.493-21.03-3.493Zm0 12c4.39 0 8.77.574 13.15 1.687-.04 10.69-.96 21.523-13.15 28.079-12.18-6.555-13.1-17.389-13.15-28.079 4.39-1.113 8.77-1.687 13.15-1.687Z" style="fill-rule:evenodd;clip-rule:evenodd;stroke-linejoin:round;stroke-miterlimit:2" transform="translate(-1060 -636)"/></svg>

<?xml version="1.0" encoding="UTF-8" standalone="no"?>
<svg
   width="100%"
   height="100%"
   viewBox="0 0 192 192"
   version="1.1"
   xml:space="preserve"
   style="fill-rule:evenodd;clip-rule:evenodd;stroke-linejoin:round;stroke-miterlimit:2;"
   id="svg10"
   sodipodi:docname="swiss_topo.svg"
   inkscape:version="1.2.1 (9c6d41e410, 2022-07-14)"
   xmlns:inkscape="http://www.inkscape.org/namespaces/inkscape"
   xmlns:sodipodi="http://sodipodi.sourceforge.net/DTD/sodipodi-0.dtd"
   xmlns="http://www.w3.org/2000/svg"
   xmlns:svg="http://www.w3.org/2000/svg"><defs
   id="defs14" /><sodipodi:namedview
   id="namedview12"
   pagecolor="#ffffff"
   bordercolor="#000000"
   borderopacity="0.25"
   inkscape:showpageshadow="2"
   inkscape:pageopacity="0.0"
   inkscape:pagecheckerboard="0"
   inkscape:deskcolor="#d1d1d1"
   showgrid="false"
   inkscape:zoom="5.3489583"
   inkscape:cx="96.186952"
   inkscape:cy="95.906524"
   inkscape:window-width="1274"
   inkscape:window-height="1303"
   inkscape:window-x="1282"
   inkscape:window-y="36"
   inkscape:window-maximized="0"
   inkscape:current-layer="svg10" />
    <path
   d="M1197.31,810.234C1202.92,807.213 1208.11,799.229 1209.73,784.349C1210.08,781.056 1207.7,778.094 1204.4,777.738C1201.11,777.382 1198.15,779.765 1197.79,783.058C1197.23,788.285 1196.25,792.387 1194.86,795.435C1193.93,797.477 1192.94,798.958 1191.62,799.669C1188.7,801.239 1187.61,804.881 1189.18,807.796C1190.75,810.712 1194.39,811.804 1197.31,810.234ZM1160.65,780.05C1160.67,785.38 1161.91,790.671 1165.36,794.672C1167.95,797.679 1170.97,801.342 1174.29,804.419C1176.72,806.669 1180.52,806.525 1182.77,804.096C1185.02,801.667 1184.88,797.868 1182.45,795.617C1179.46,792.854 1176.77,789.54 1174.45,786.84C1172.87,785.003 1172.66,782.467 1172.65,780.02C1172.65,776.708 1169.95,774.026 1166.64,774.035C1163.33,774.043 1160.65,776.739 1160.65,780.05ZM1134.48,777.595C1131.6,777.074 1128.69,778.729 1127.73,781.583C1126.67,784.721 1128.36,788.128 1131.5,789.186C1132.87,789.649 1134.21,789.872 1135.49,789.872C1139.83,789.872 1143.14,787.485 1145.19,783.244C1147.81,777.858 1147.87,768.323 1147.66,764.393C1147.49,761.086 1144.67,758.541 1141.36,758.713C1138.05,758.885 1135.51,761.709 1135.68,765.016C1135.79,767.099 1135.91,771.317 1135.25,775.012C1135.11,775.813 1134.75,776.876 1134.48,777.595ZM1110.09,768.236C1110.09,768.236 1112.25,771.53 1115.39,775.455C1117.45,778.042 1121.23,778.464 1123.82,776.396C1126.41,774.329 1126.83,770.55 1124.76,767.963C1122.01,764.527 1120.12,761.646 1120.12,761.646C1118.3,758.878 1114.58,758.108 1111.81,759.926C1109.04,761.745 1108.27,765.468 1110.09,768.236ZM1210.41,765.915C1210.68,757.493 1211.49,750.93 1214.75,745.854C1216.54,743.068 1215.73,739.353 1212.94,737.563C1210.16,735.773 1206.44,736.582 1204.65,739.368C1200.38,746.02 1198.77,754.496 1198.41,765.532C1198.31,768.841 1200.91,771.614 1204.22,771.72C1207.53,771.826 1210.3,769.225 1210.41,765.915ZM1156.98,754.626C1160.22,756.442 1161.29,759.907 1161.71,762.937C1162.17,766.218 1165.2,768.513 1168.48,768.059C1171.76,767.606 1174.05,764.574 1173.6,761.294C1172.69,754.733 1169.57,747.684 1162.37,743.896C1157.93,741.557 1153.02,742.424 1148.49,745.651C1145.8,747.573 1145.17,751.323 1147.09,754.02C1149.01,756.716 1152.76,757.345 1155.46,755.422C1155.91,755.103 1156.7,754.748 1156.98,754.626ZM1170.94,713.256L1182.69,737.625C1183.69,739.7 1185.79,741.019 1188.09,741.019C1190.39,741.019 1192.5,739.7 1193.5,737.625L1205.25,713.256C1206.88,710.388 1207.81,707.065 1207.81,703.524C1207.81,692.639 1198.98,683.801 1188.09,683.801C1177.2,683.801 1168.37,692.639 1168.37,703.524C1168.37,707.066 1169.31,710.392 1170.94,713.267L1170.94,713.256ZM1226.02,737.295C1227.75,736.572 1229.64,735.905 1231.72,735.285C1234.89,734.337 1236.7,730.991 1235.75,727.818C1234.8,724.645 1231.45,722.839 1228.28,723.788C1225.77,724.539 1223.48,725.351 1221.39,726.226C1218.33,727.506 1216.89,731.024 1218.17,734.079C1219.45,737.133 1222.97,738.574 1226.02,737.295ZM1131.05,719.593L1123.29,727.354C1120.95,729.695 1120.95,733.498 1123.29,735.839C1125.63,738.181 1129.43,738.181 1131.78,735.839L1139.54,728.078L1147.3,735.839C1149.64,738.181 1153.44,738.181 1155.78,735.839C1158.13,733.498 1158.13,729.695 1155.78,727.354L1148.02,719.593L1155.78,711.831C1158.13,709.49 1158.13,705.688 1155.78,703.346C1153.44,701.005 1149.64,701.005 1147.3,703.346L1139.54,711.107L1131.78,703.346C1129.43,701.005 1125.63,701.005 1123.29,703.346C1120.95,705.688 1120.95,709.49 1123.29,711.831L1131.05,719.593ZM1181.65,707.845C1181.58,707.699 1181.5,707.556 1181.42,707.416C1180.75,706.273 1180.37,704.943 1180.37,703.524C1180.37,699.262 1183.83,695.801 1188.09,695.801C1192.35,695.801 1195.81,699.262 1195.81,703.524C1195.81,704.943 1195.43,706.273 1194.76,707.416C1194.68,707.556 1194.6,707.699 1194.53,707.845L1188.09,721.205C1188.09,721.205 1181.65,707.845 1181.65,707.845ZM1101.14,652C1094.14,652 1087.13,653.18 1080.12,655.493C1077.66,656.304 1076,658.601 1076,661.191C1076,678.349 1076.58,696.173 1098.73,705.926C1100.27,706.604 1102.02,706.604 1103.56,705.926C1125.71,696.173 1126.29,678.349 1126.29,661.191C1126.29,658.601 1124.63,656.304 1122.17,655.493C1115.16,653.18 1108.15,652 1101.14,652ZM1101.14,664C1105.53,664 1109.91,664.574 1114.29,665.687C1114.25,676.377 1113.33,687.21 1101.14,693.766C1088.96,687.211 1088.04,676.377 1087.99,665.687C1092.38,664.574 1096.76,664 1101.14,664Z"
   id="path4"
   style="fill-rule:evenodd;clip-rule:evenodd;stroke-linejoin:round;stroke-miterlimit:2"
   transform="translate(-1060,-636)"
   inkscape:label="swiss_topo_form" />
</svg>
